16x16/apps/gelemental.svg

<svg height="16" width="16" xmlns="http://www.w3.org/2000/svg"><rect fill="#f4f4f7" height="8" ry="1.6" width="4" x="6"/><path d="m8.13 5.602a2.765 2.235 0 0 0 -2.524 1.115l-2.118 2.965-2.118 2.965a2.765 2.235 0 0 0 2.395 3.353h8.47a2.765 2.235 0 0 0 2.395-3.353l-2.118-2.965-2.117-2.965a2.765 2.235 0 0 0 -2.265-1.115z" fill="#f4f4f7"/><path d="m8.5 3a.5.5 0 0 0 -.5.5.5.5 0 0 0 .5.5.5.5 0 0 0 .5-.5.5.5 0 0 0 -.5-.5zm-1 2a.5.5 0 0 0 -.5.5.5.5 0 0 0 .5.5.5.5 0 0 0 .5-.5.5.5 0 0 0 -.5-.5zm1 2a.5.5 0 0 0 -.5.5.5.5 0 0 0 .5.5.5.5 0 0 0 .5-.5.5.5 0 0 0 -.5-.5zm-2 2a.5.5 0 0 0 -.5.5.5.5 0 0 0 .5.5.5.5 0 0 0 .5-.5.5.5 0 0 0 -.5-.5zm-1.534 2-.754 1.066a1.58 1.29 0 0 0 1.368 1.934h4.84a1.58 1.29 0 0 0 1.368-1.934l-.754-1.066z" fill="#b343ff"/></svg>

<svg xmlns="http://www.w3.org/2000/svg" width="16" height="16" version="1"><rect style="fill:#f4f4f7" width="4" height="8" x="6" ry="1.6"/><path style="fill:#f4f4f7" d="M8.13 5.602a2.765 2.235 0 0 0-2.524 1.115L3.488 9.682 1.37 12.647A2.765 2.235 0 0 0 3.765 16h8.47a2.765 2.235 0 0 0 2.395-3.353l-2.118-2.965-2.117-2.965A2.765 2.235 0 0 0 8.13 5.602z"/><path style="fill:#b343ff" d="M8.5 3a.5.5 0 0 0-.5.5.5.5 0 0 0 .5.5.5.5 0 0 0 .5-.5.5.5 0 0 0-.5-.5zM7.5 5a.5.5 0 0 0-.5.5.5.5 0 0 0 .5.5.5.5 0 0 0 .5-.5.5.5 0 0 0-.5-.5zM8.5 7a.5.5 0 0 0-.5.5.5.5 0 0 0 .5.5.5.5 0 0 0 .5-.5.5.5 0 0 0-.5-.5zM6.5 9a.5.5 0 0 0-.5.5.5.5 0 0 0 .5.5.5.5 0 0 0 .5-.5.5.5 0 0 0-.5-.5zM4.966 11l-.754 1.066A1.58 1.29 0 0 0 5.58 14h4.84a1.58 1.29 0 0 0 1.368-1.934L11.034 11H4.966z"/></svg>
